symbols/web/remove_moderator/materialsymbolsoutlined/remove_moderator_grad200fill1_24px.svg

<svg xmlns="http://www.w3.org/2000/svg" height="24" width="24"><path d="M19.35 16.8 6 3.425l6-2.275 8.75 3.3v6.65q0 1.475-.362 2.962-.363 1.488-1.038 2.738Zm.625 6.925L16.65 20.4q-.975.95-2.137 1.525-1.163.575-2.513.925-3.775-.875-6.263-4.213Q3.25 15.3 3.25 11.1V7L.275 4.025 2.15 2.15l19.7 19.7Z"/></svg>

<svg xmlns="http://www.w3.org/2000/svg" height="24" width="24"><path d="M19.35 16.8 6 3.425 12 1.15 20.75 4.45V11.1Q20.75 12.575 20.388 14.062Q20.025 15.55 19.35 16.8ZM19.975 23.725 16.65 20.4Q15.675 21.35 14.513 21.925Q13.35 22.5 12 22.85Q8.225 21.975 5.737 18.637Q3.25 15.3 3.25 11.1V7L0.275 4.025L2.15 2.15L21.85 21.85Z"/></svg>
